build/img/icons/phone-restart.svg

<svg xmlns="http://www.w3.org/2000/svg" width="87" height="87" viewBox="0 0 87 87" fill="none"> <path d="M64.3125 0C51.4838 0 41 10.3058 41 23C40.9962 23.265 41.0452 23.5282 41.144 23.7741C41.2429 24.02 41.3896 24.2439 41.5757 24.4326C41.7617 24.6214 41.9835 24.7712 42.228 24.8735C42.4725 24.9758 42.7349 25.0285 43 25.0285C43.265 25.0285 43.5274 24.9758 43.772 24.8735C44.0165 24.7712 44.2382 24.6214 44.4243 24.4326C44.6104 24.2439 44.7571 24.02 44.8559 23.7741C44.9548 23.5282 45.0037 23.265 45 23C45 12.4983 53.6153 4 64.3125 4C70.7667 4 76.3614 6.90881 79.8437 11.5625L74.3437 10.9688C74.0729 10.9206 73.795 10.9289 73.5275 10.993C73.2599 11.0571 73.0085 11.1758 72.7889 11.3415C72.5693 11.5072 72.3862 11.7164 72.2512 11.9561C72.1161 12.1958 72.032 12.4607 72.0039 12.7344C71.9759 13.0081 72.0047 13.2846 72.0884 13.5467C72.1721 13.8087 72.3089 14.0507 72.4904 14.2575C72.6719 14.4643 72.8941 14.6314 73.1431 14.7484C73.392 14.8654 73.6625 14.9298 73.9375 14.9375L83.6562 15.9688C83.9507 15.9979 84.248 15.9613 84.5266 15.8617C84.8053 15.7621 85.0584 15.6019 85.2676 15.3926C85.4769 15.1834 85.6371 14.9303 85.7367 14.6517C85.8363 14.373 85.8729 14.0757 85.8437 13.7812L84.8437 3.53125C84.8204 3.26526 84.744 3.00664 84.6191 2.77063C84.4943 2.53462 84.3234 2.326 84.1166 2.15708C83.9098 1.98815 83.6713 1.86234 83.4151 1.78706C83.1589 1.71178 82.8903 1.68855 82.625 1.71875C82.3617 1.74598 82.1065 1.82517 81.8741 1.95175C81.6417 2.07833 81.4367 2.24977 81.271 2.45614C81.1053 2.66252 80.9823 2.89972 80.9089 3.154C80.8356 3.40828 80.8134 3.67459 80.8437 3.9375L81.125 6.90625C76.8816 2.57886 70.9063 0 64.3125 0ZM17.1562 14C14.9358 14.0075 12.2698 15.4295 10.5937 17.0938C-3.34759 31.035 -2.83096 40.3878 16.9375 60.1562L26.8437 70.0625C46.6122 89.831 55.965 90.3476 69.9062 76.4062C72.327 73.9683 74.2514 69.439 72.0312 67.2188C68.8446 64.0322 61.5219 58.9016 58.5312 57.4062C55.5405 55.9109 52.3519 59.6154 50.375 61.5C45.3147 66.3239 44.4159 69.2912 34.5937 59.4688L27.5312 52.4062C17.7088 42.5842 20.6761 41.6853 25.5 36.625C27.3846 34.6481 31.0891 31.4595 29.5937 28.4688C28.0984 25.478 22.9678 18.1553 19.7812 14.9688C19.0874 14.2749 18.1655 13.9966 17.1562 14ZM84.7812 20.9688C84.2842 21.0234 83.8256 21.2622 83.4958 21.6382C83.1661 22.0142 82.9892 22.5 83 23C83 33.5171 74.517 42 64 42C57.606 42 52.0545 39.0913 48.625 34.375L54.5312 35C54.8021 35.0481 55.08 35.0399 55.3475 34.9757C55.615 34.9116 55.8665 34.793 56.0861 34.6273C56.3057 34.4616 56.4887 34.2523 56.6238 34.0126C56.7588 33.773 56.843 33.508 56.871 33.2343C56.899 32.9607 56.8703 32.6841 56.7866 32.4221C56.7029 32.16 56.566 31.918 56.3846 31.7113C56.2031 31.5045 55.9809 31.3374 55.7319 31.2204C55.4829 31.1034 55.2125 31.039 54.9375 31.0312L45.2187 30C45.0837 29.9862 44.9476 29.9862 44.8125 30C44.5494 30.0235 44.2936 30.0989 44.0598 30.2218C43.8261 30.3447 43.6189 30.5127 43.4504 30.7161C43.2819 30.9195 43.1554 31.1542 43.078 31.4067C43.0007 31.6593 42.9742 31.9246 43 32.1875L44.0312 42.4375C44.039 42.7125 44.1034 42.9829 44.2204 43.2319C44.3374 43.4809 44.5045 43.7031 44.7112 43.8846C44.918 44.066 45.16 44.2029 45.4221 44.2866C45.6841 44.3703 45.9606 44.3991 46.2343 44.371C46.508 44.343 46.773 44.2589 47.0126 44.1238C47.2523 43.9887 47.4615 43.8057 47.6273 43.5861C47.793 43.3665 47.9116 43.1151 47.9757 42.8475C48.0399 42.58 48.0481 42.3021 48 42.0312L47.75 39.4375C51.9145 43.5547 57.6678 46 64 46C76.6787 46 87 35.6788 87 23C87.0061 22.7153 86.9514 22.4325 86.8394 22.1707C86.7275 21.9088 86.5609 21.6739 86.3509 21.4816C86.1408 21.2893 85.8922 21.1441 85.6215 21.0556C85.3508 20.9672 85.0643 20.9376 84.7812 20.9688V20.9688Z" fill="#101010"/> </svg>

<svg xmlns="http://www.w3.org/2000/svg" width="87" height="87" fill="none"><path d="M64.313 0C51.483 0 41 10.306 41 23a2 2 0 104 0c0-10.502 8.615-19 19.313-19 6.454 0 12.048 2.909 15.53 7.563l-5.5-.594a2 2 0 10-.406 3.969l9.72 1.03a2.001 2.001 0 002.187-2.187l-1-10.25a2 2 0 00-2.219-1.812 2 2 0 00-1.781 2.218l.281 2.97C76.882 2.578 70.906 0 64.312 0zM17.156 14c-2.22.008-4.886 1.43-6.562 3.094-13.942 13.941-13.425 23.294 6.344 43.062l9.906 9.907c19.768 19.768 29.121 20.285 43.062 6.343 2.421-2.438 4.345-6.967 2.125-9.187-3.186-3.187-10.51-8.317-13.5-9.813-2.99-1.495-6.18 2.21-8.156 4.094-5.06 4.824-5.96 7.791-15.781-2.031l-7.063-7.063c-9.822-9.822-6.855-10.72-2.031-15.781 1.885-1.977 5.59-5.166 4.094-8.156-1.496-2.991-6.626-10.314-9.813-13.5-.694-.694-1.615-.972-2.625-.969zm67.625 6.969A2 2 0 0083 23c0 10.517-8.483 19-19 19-6.394 0-11.946-2.909-15.375-7.625l5.906.625a2 2 0 10.407-3.969L45.218 30a1.998 1.998 0 00-.406 0A2 2 0 0043 32.188l1.031 10.25A2.001 2.001 0 1048 42.03l-.25-2.593C51.914 43.554 57.668 46 64 46c12.679 0 23-10.321 23-23a2 2 0 00-2.219-2.031z" fill="#101010"/></svg>
